X:1
T:Title
%%score { ( 1 3 ) | ( 2 4 ) }
L:1/8
M:4/4
K:Ab
V:1 treble nm="Grand Piano"
V:3 treble 
V:2 bass 
V:4 bass 
V:1
 z4 z2[Q:1/4=100] [CE]2 | [CA][CA][CA][CA] [CA][CE][EA][EB] |[M:3/4] [Ec]6 |[M:1/4] c2 | %4
[M:4/4] e6 z2 | B6 z2 | [CA][CA][CA][CA] [CA][CE][EA][EB] | [Ec]6 [Ec]2 | [Ee]3 [Fd] [Ec]2 [DB]2 | %9
[M:5/8] [CA]-[CA]- [CA]3 |[M:3/8] EAB |[M:4/4] c6 z2 | z CDD CEGA | B6 z2 | A6 z2 | e6 z2 | %16
[M:3/4] f6 |[M:1/4] [Af]2 |[M:4/4] [Ae]3 [FBd] [EAc]2 [DGB]2 |[M:3/4] A6 |] %20
V:2
 z4 z2 [A,,A,]2 | [A,,E,][A,,E,][A,,E,][A,,E,] [A,,E,][A,,A,][C,A,][E,G,] |[M:3/4] [A,,A,]6 | %3
[M:1/4] z2 |[M:4/4] z2 [A,C]2 [A,C]2 [A,E]2 | [G,B,E]2 [F,A,]2 [E,G,]2 [E,G,D]2 | %6
 [A,,A,][A,,E,][A,,E,][A,,E,] [A,,E,][A,,A,][C,A,][E,G,] | [A,,A,]6 [A,,A,]2 | %8
 [C,A,]3 [D,A,] [E,A,]2 [E,G,]2 |[M:5/8] [A,,A,]-[A,,A,]- [A,,A,]3 |[M:3/8] z3 | %11
[M:4/4] z [A,,A,][A,,A,][A,,A,] .[A,,A,]2 z2 | z [A,,A,][B,,G,][B,,G,] .[A,,A,]2 z2 | %13
 z [E,G,][E,G,][E,G,] .[E,G,]2 z2 | z [A,,E,][A,,F,][A,,=D,] .[A,,E,]2 z2 | %15
 z A,,[C,A,][E,C] .[A,C]2 z2 |[M:3/4] z [D,D] [D,D][D,D] [D,D]2 |[M:1/4] [D,D]2 | %18
[M:4/4] [E,C]3 B,, E,2 E,2 |[M:3/4] z C DD C2 |] %20
V:3
 x8 | x8 |[M:3/4] x6 |[M:1/4] x2 |[M:4/4] z2 E2 E2 c2 | z2 =D2 _D2 E2 | x8 | x8 | x8 |[M:5/8] x5 | %10
[M:3/8] x3 |[M:4/4] z EEE EBAF | E6 z2 | z DDD DBcB | z CD_C =CEAc | z [CE]EE Acde | %16
[M:3/4] z A AA A2 |[M:1/4] x2 |[M:4/4] x8 |[M:3/4] CE FF E2 |] %20
V:4
 x8 | x8 |[M:3/4] x6 |[M:1/4] x2 |[M:4/4] x8 | x8 | x8 | x8 | x8 |[M:5/8] x5 |[M:3/8] x3 | %11
[M:4/4] x8 | x8 | x8 | x8 | x8 |[M:3/4] x6 |[M:1/4] x2 |[M:4/4] x8 |[M:3/4] A,,6 |] %20

